!!!!SEGMENT: Wil2007-Intercessio_quesumus_Domine.krn
!!!id: Wil2007
!!!AGN: Motet
!!!SCT: Zenck (1950)
!!!voices: 4
!!!COM: Adrian Willaert
!!!OTL: Intercessio, quesumus, Domine
**kern	**kern	**kern	**kern
*part4	*part3	*part2	*part1
*staff4	*staff3	*staff2	*staff1
*I"Bassus	*I"Tenor	*I"Altus	*I"Superius
*I'B	*I'T	*I'A	*I'S
*clefF4	*clefGv2	*clefGv2	*clefG2
*k[]	*k[]	*k[]	*k[]
*C:	*C:	*C:	*C:
*M2/1	*M2/1	*M2/1	*M2/1
*met(C|)	*met(C|)	*met(C|)	*met(C|)
!!section: Prima pars: Intercessio, quesumus, Domine
!!!OMD: Prima pars: Intercessio, quesumus, Domine
=1	=1	=1	=1
0r	0r	0r	1.a
.	.	.	2a
=2	=2	=2	=2
0r	0r	0r	1a
.	.	.	1a
=3	=3	=3	=3
0r	0r	1.e	1g
.	.	.	[1cc
.	.	2e	.
=4	=4	=4	=4
0r	0r	1e	2cc]
.	.	.	2b
.	.	1e	1g
=5	=5	=5	=5
0r	1.A	1e	1cc
.	.	[1f	2cc
.	2A	.	[2cc
=6	=6	=6	=6
0r	1A	2f]	2cc]
.	.	2e	2cc
.	1A	1c	1cc
=7	=7	=7	=7
1.E	1G	1g	1b
.	[1c	2g	[1ee
2E	.	[2g	.
=8	=8	=8	=8
1E	2c]	2g]	2ee]
.	2B	2g	4dd
.	.	.	4cc
1E	1G	1g	2b
.	.	.	2cc
=9	=9	=9	=9
1D	1A	1f	1dd
[1F	2A	[1a	2.cc
.	[2A	.	.
.	.	.	4b
=10	=10	=10	=10
2F]	2A]	2a]	4cc
.	.	.	4dd
2E	2B	2g	1ee
1C	1c	1g	.
.	.	.	4dd
.	.	.	4cc
=11	=11	=11	=11
1G	1d	1.g	1b
2G	[1d	.	2r
[2G	.	2g	[2b
=12	=12	=12	=12
2G]	2d]	2.g	2b]
2G	2B	.	2b
.	.	8fL	.
.	.	8eJ	.
1G	1B	2d	1b
.	.	2e	.
=13	=13	=13	=13
1F	1.c	1f	1a
[1A	.	2f	2.cc
.	2c	[2e	.
.	.	.	4dd
=14	=14	=14	=14
1A]	1c	4e]	1.ee
.	.	4d	.
.	.	1c	.
1G	1g	.	.
.	.	4B	4dd
.	.	4A	4cc
=15	=15	=15	=15
1G	1.g	1B	2dd
.	.	.	2dd
[1C	.	2.c	[1ee
.	2g	.	.
.	.	4d	.
=16	=16	=16	=16
2C]	1g	2.e	1ee]
2C	.	.	.
.	.	4f	.
1C	1e	[1g	1cc
=17	=17	=17	=17
1G	2.d	1g]	[0b
.	4c	.	.
1G	4B	2r	.
.	4A	.	.
.	[2B	[2g	.
=18	=18	=18	=18
2G	4B]	2g]	1b]
.	4G	.	.
2G	1d	2g	.
1E	.	1g	1r
.	2c#i	.	.
=19	=19	=19	=19
0D	2.d	2.f	2r
.	.	.	1a
.	8cL	4e	.
.	8BJ	.	.
.	1A	2d	.
.	.	2d	2a
=20	=20	=20	=20
1r	1d	1f	1a
2r	1r	1e	2.b
[2G	.	.	.
.	.	.	4cc
=21	=21	=21	=21
2G]	0r	1.d	2dd
2G	.	.	2dd
1G	.	.	1b
.	.	4c	.
.	.	4B	.
=22	=22	=22	=22
2.F	2r	2A	1cc
.	1A	1f	.
4E	.	.	.
2D	.	.	2.dd
2D	2A	4e	.
.	.	4d	8ccL
.	.	.	8bJ
=23	=23	=23	=23
1F	1A	2c	1a
.	.	2d	.
1E	2.B	1e	1g
.	4c	.	.
=24	=24	=24	=24
1D	2d	1r	2r
.	2d	.	1dd
1G	1B	2r	.
.	.	2g	2dd
=25	=25	=25	=25
1r	1c	2g	1cc
.	.	2g	.
2.D	2.d	2.f	2a
.	.	.	[2dd
4D	8cL	4e	.
.	8BJ	.	.
=26	=26	=26	=26
2F	2A	2d	4dd]
.	.	.	4cc
2G	2B	2d	2.b
2F	2c	1f	.
.	.	.	4a
2D	2d	.	[2a
=27	=27	=27	=27
1E	1B	1e	2a]
.	.	.	2g#i
1A	2.c	2.e	2a
.	.	.	2cc
.	4d	4f	.
=28	=28	=28	=28
1r	1e	1g	2b
.	.	.	2cc
[1D	1f	1a	2.dd
.	.	.	4cc
=29	=29	=29	=29
2D]	2d	1r	2b
2D	2.f	.	1a
2.F	.	[1a	.
.	4e	.	.
.	[2d	.	4g
4G	.	.	4f
=30	=30	=30	=30
1A	2d]	2a]	1e
.	2c	2a	.
1r	2.d	2.f	[1a
.	4e	4e	.
=31	=31	=31	=31
1r	1f	1d	2a]
.	.	.	2a
[1A	1e	1a	2.cc
.	.	.	4dd
=32	=32	=32	=32
2A]	1r	1e	1ee
2A	.	.	.
2.F	2r	[1f	1a
.	[2A	.	.
4E	.	.	.
=33	=33	=33	=33
1D	2A]	1f]	1dd
.	2A	.	.
1A	2.c	2.e	2.cc
.	4d	4f	8bL
.	.	.	8aJ
=34	=34	=34	=34
1E	1e	1g	2cc
.	.	.	2b
[1F	1A	2.a	2a
.	.	.	[2cc
.	.	8gL	.
.	.	8fJ	.
=35	=35	=35	=35
2F]	1d	2a	2cc]
2G	.	2g	2b
1A	2.c	2e	1cc
.	.	[2a	.
.	8BL	.	.
.	8AJ	.	.
=36	=36	=36	=36
1E	2c	2a]	1r
.	2B	2g#i	.
2.F	2A	1a	1cc
.	[2c	.	.
4E	.	.	.
=37	=37	=37	=37
1D	4c]	1f	2dd
.	4B	.	.
.	4B	.	2dd
.	4A	.	.
1C	1c	2g	[1ee
.	.	2g	.
=38	=38	=38	=38
0r	0r	1.a	2ee]
.	.	.	2ee
.	.	.	1ee
.	.	2a	.
=39	=39	=39	=39
1F	0r	1a	2dd
.	.	.	2cc
2G	.	2.g	1b
2G	.	.	.
.	.	4f	.
=40	=40	=40	=40
1.A	0r	1.e	2a
.	.	.	2.cc
.	.	.	4dd
2A	.	2c	[2ee
=41	=41	=41	=41
1A	1c	2.e	2ee]
.	.	.	4dd
.	.	4f	4cc
2.G	2d	[1g	[1b
.	2d	.	.
4F	.	.	.
=42	=42	=42	=42
1.E	1.e	0g]	1b]
.	.	.	1r
2C	2e	.	.
=43	=43	=43	=43
2.E	1e	0r	2r
.	.	.	2g
4F	.	.	.
[1G	2.d	.	2.b
.	4c	.	4cc
=44	=44	=44	=44
1G]	1.B	2r	2dd
.	.	2d	2dd
[1E	.	2.e	1g
.	2G	.	.
.	.	4f	.
=45	=45	=45	=45
1E]	2.B	1g	1r
.	4c	.	.
1D	2d	1f	1a
.	2d	.	.
=46	=46	=46	=46
0r	0G	1d	2b
.	.	.	1dd
.	.	1g	.
.	.	.	4cc
.	.	.	4b
=47	=47	=47	=47
0r	0r	2f	2.a
.	.	1a	.
.	.	.	4b
.	.	.	4cc
.	.	.	4dd
.	.	4g	[2ee
.	.	4f	.
=48	=48	=48	=48
0r	1r	2.g	4ee]
.	.	.	4dd
.	.	.	1dd
.	.	4f	.
.	2r	1e	.
.	2A	.	2cc#i
=49	=49	=49	=49
1r	2B	1d	0dd
.	1d	.	.
1G	.	1r	.
.	4c	.	.
.	4B	.	.
=50	=50	=50	=50
2F	2.A	0r	0r
1A	.	.	.
.	4B	.	.
.	4c	.	.
.	4d	.	.
4G	[2e	.	.
4F	.	.	.
=51	=51	=51	=51
2G	4e]	2r	0r
.	4d	.	.
2D	1d	1f	.
1A	.	.	.
.	2c	2e	.
=52	=52	=52	=52
1r	1B-X	2f	0r
.	.	2g	.
2r	2.A	[1a	.
[2F	.	.	.
.	4G	.	.
=53	=53	=53	=53
2F]	4A	2a]	0r
.	4B	.	.
2E	1c	2g	.
2F	.	2a	.
2G	2B	4g	.
.	.	4f	.
=54	=54	=54	=54
2.A	2.c	2e	0r
.	.	1a	.
4G	4B	.	.
2F	4c	.	.
.	4d	.	.
2E	[2e	[2g	.
=55	=55	=55	=55
2A	2e]	2g]	2r
2A	4d	2f	1cc
.	4c	.	.
1G	1d	2.g	.
.	.	.	2b
.	.	4a	.
=56	=56	=56	=56
0r	1r	1f	2cc
.	.	.	2dd
.	2r	2.e	[1ee
.	[2c	.	.
.	.	4d	.
=57	=57	=57	=57
0r	2c]	4e	2ee]
.	.	4f	.
.	2B	1g	2dd
.	2c	.	2ee
.	2d	2f#i	4dd
.	.	.	4cc
=58	=58	=58	=58
1r	2.e	0g	2b
.	.	.	1ee
.	4d	.	.
2r	2c	.	.
[2G	2B	.	[2dd
=59	=59	=59	=59
2G]	1e	2r	4dd]
.	.	.	4cc
2E	.	2g	1cc
2F	1d	2a	.
2G	.	4g	2b
.	.	4f	.
=60	=60	=60	=60
2.A	1c	2e	2.cc
.	.	1a	.
4G	.	.	4b
2F	2A	.	4cc
.	.	.	4dd
2E	2B	[2g	[2ee
=61	=61	=61	=61
2A	1c	2g]	2ee]
2A	.	2f	4dd
.	.	.	4cc
1G	1d	[1g	1b
=62	=62	=62	=62
1C	1c	1g]	1r
1r	2r	1c	1ee
.	2e	.	.
=63	=63	=63	=63
1A	1e	2r	1ee
.	.	2c	.
1A	1f	1c	1cc
=64	=64	=64	=64
1G	1g	1d	1b
[1E	2r	[1e	2r
.	2g	.	2b
=65	=65	=65	=65
1E]	1g	1e]	1b
1r	1f	1r	1cc
=66	=66	=66	=66
2r	1.d	2r	2.dd
2D	.	2f	.
.	.	.	8ccL
.	.	.	8bJ
1F	.	1f	1a
.	2c	.	.
=67	=67	=67	=67
2G	2B	2e	0r
1A	1c	2c	.
.	.	2e	.
4G	4B	2f	.
4F	4A	.	.
=68	=68	=68	=68
4E	1B	2.g	1r
4D	.	.	.
2.G	.	.	.
.	.	8fL	.
.	.	8eJ	.
.	2r	2d	1dd
4A	.	.	.
2B	2G	[2g	.
=69	=69	=69	=69
1A	1c	2g]	1cc
.	.	2f#i	.
1G	2d	[1g	2b
.	[2e	.	2g
=70	=70	=70	=70
1r	2e]	0g]	2b
.	4d	.	2cc
.	4c	.	.
1G	4B	.	2.dd
.	4A	.	.
.	[2d	.	.
.	.	.	8ccL
.	.	.	8bJ
=71	=71	=71	=71
2F	4d]	0r	2a
.	4e	.	.
2D	2f	.	1dd
1A	1e	.	.
.	.	.	2cc#i
=72	=72	=72	=72
2.D	1.d	2r	1dd
.	.	2a	.
4E	.	.	.
4F	.	2a	1r
4G	.	.	.
4A	2c	2a	.
4F	.	.	.
=73	=73	=73	=73
2.G	2.B	2d	2r
.	.	1g	2dd
8FL	8AL	.	.
8EJ	8GJ	.	.
1D	2.A	.	2dd
.	.	2f	2dd
.	4B	.	.
=74	=74	=74	=74
0r	2c	2e	2g
.	2B	4d	1dd
.	.	4e	.
.	1A	4f	.
.	.	4g	.
.	.	4a	2cc
.	.	4f	.
=75	=75	=75	=75
1r	0r	2g	2b
.	.	1f	1a
2r	.	.	.
2A	.	4e	4g
.	.	4d	4f
=76	=76	=76	=76
2A	1r	2.c	1e
2A	.	.	.
.	.	8dL	.
.	.	8cJ	.
2D	2r	1d	1r
[2G	2d	.	.
=77	=77	=77	=77
2G]	2d	1r	0r
2F	2d	.	.
2E	2G	2r	.
4D	[2d	2a	.
4E	.	.	.
=78	=78	=78	=78
4F	2d]	2a	1r
4G	.	.	.
4A	2c	2a	.
4F	.	.	.
2G	2B	2d	2r
[2F	4A	[2a	2cc
.	4B	.	.
=79	=79	=79	=79
4F]	4c	2a]	2cc
4E	4d	.	.
2C	2e	2g	2cc
2D	2d	1f	2a
[2A	[2c	.	[2cc
=80	=80	=80	=80
2A]	4c]	1e	2cc]
.	4d	.	.
2G	1e	.	2b
1F	.	1A	1a
.	2d	.	.
=81	=81	=81	=81
1E	1.e	2r	2.g
.	.	2B	.
.	.	.	4f
1r	.	1c	2g
.	4d	.	[2a
.	4c	.	.
=82	=82	=82	=82
2r	2d	2B	4a]
.	.	.	4g
2G	2B	1e	1g
1A	1c	.	.
.	.	4d	2f#i
.	.	4c	.
=83	=83	=83	=83
2G	2B	2d	2g
2E	2e	1g	2b
1A	2e	.	1cc
.	4d	2f#i	.
.	4c	.	.
=84	=84	=84	=84
1G	2d	2g	2b
.	2e	1b	2g
1F	1f	.	1cc
.	.	[2a	.
=85	=85	=85	=85
1G	0d	4a]	1b
.	.	4g	.
.	.	1g	.
1r	.	.	1a
.	.	2f#i	.
=86	=86	=86	=86
1G	2r	0g	0b
.	2B	.	.
1G	[1d	.	.
=87	=87	=87	=87
1F	2d]	1r	1r
.	2d	.	.
1E	2.e	1g	2r
.	.	.	2b
.	8dL	.	.
.	8cJ	.	.
=88	=88	=88	=88
0r	2.B	1g	1dd
.	4c	.	.
.	2d	1f	1dd
.	2d	.	.
=89	=89	=89	=89
1E	1.g	1e	2.ee
.	.	.	8ddL
.	.	.	8ccJ
[1G	.	1e	[1b
.	2g	.	.
=90	=90	=90	=90
2G]	1g	1d	1b]
2G	.	.	.
2A	1e	2c	[1ee
[2c	.	2e	.
=91	=91	=91	=91
2c]	2r	1.g	1ee]
4B	2c	.	.
4A	.	.	.
2B	2d	.	1dd
2B	2d	2g	.
=92	=92	=92	=92
0A	2e	0a	0cc
.	1f	.	.
.	2e	.	.
=93	=93	=93	=93
1.G	2e	1.b	0r
.	2d	.	.
.	2e	.	.
2F	[2f	2a	.
=94	=94	=94	=94
2.A	4f]	0a	0r
.	4e	.	.
.	1e	.	.
4G	.	.	.
1F	.	.	.
.	2d	.	.
=95	=95	=95	=95
1E	2e	1r	2r
.	1c	.	1ee
2.G	.	[1g	.
.	2B	.	2dd
4F	.	.	.
=96	=96	=96	=96
2E	2c	2g]	2ee
1D	2d	2f	2.ff
.	[1A	2.a	.
.	.	.	4ee
2C	.	.	[2ee
.	.	4g	.
=97	=97	=97	=97
1D	2A]	1f	2ee]
.	2B	.	2dd
1r	1c	1e	1ee
=98	=98	=98	=98
0G	1B	1r	1r
.	2r	1B	1dd
.	2d	.	.
=99	=99	=99	=99
1.G	1.g	1.d	1.b
2G	2g	2d	2b
=100	=100	=100	=100
1C	1g	1e	1cc
[1F	[1c	[1f	[1a
=101	=101	=101	=101
2F]	2c]	2f]	2a]
2C	2c	2e	2g
1C	1c	[1e	2.g
.	.	.	4a
=102	=102	=102	=102
1.G	2.B	2e]	4b
.	.	.	4cc
.	.	2d	2.dd
.	4A	.	.
.	4B	2e	.
.	4c	.	4cc
2F	[2d	[2f	2a
=103	=103	=103	=103
2G	2d]	4f]	2b
.	.	4e	.
2A	2c	1e	1cc
1F	2.A	.	.
.	.	2d	4b
.	4B	.	4a
=104	=104	=104	=104
0E	2c	[0el	2g
.	4B	.	1a
.	4A	.	.
.	1B	.	.
.	.	.	2g#i
=105	=105	=105	=105
00Al	00Al	00e]	00al
==	==	==	==
*-	*-	*-	*-
!!!system-decoration: [*]
!!!RDF**kern: i = editorial accidental
!!!RDF**kern: l = terminal long
!!!ENC: Benjamin Ory
!!!END: 2020/12/15
!!!EED: Benjamin Ory
!!!EEV: 2021/04/30
!!!YEC: Copyright 2021 Benjamin Ory, All Rights Reserved
!!!ONB: Translated from MusicXML on 2021/04/30
